round/svg/linked_camera.svg

<svg xmlns="http://www.w3.org/2000/svg" width="24" height="24"><path fill="none" d="M0 0h24v24H0V0z"/><g fill="currentColor"><circle cx="12" cy="14" r="3"/><path d="M16.6 3.37c2.1.27 3.77 1.93 4.03 4.03.04.34.32.6.66.6.39 0 .71-.34.66-.73a6.008 6.008 0 0 0-5.22-5.22c-.39-.05-.73.27-.73.66 0 .34.26.62.6.66zM19.23 7.19a3.338 3.338 0 0 0-2.42-2.42c-.41-.1-.81.22-.81.65 0 .29.19.57.48.64.72.18 1.29.74 1.46 1.46.07.29.34.48.64.48.43 0 .75-.4.65-.81z"/><path d="M17 9c0-1.1-.9-2-2-2V5c0-.55-.45-1-1-1H9.88c-.56 0-1.1.24-1.48.65L7.17 6H4c-1.1 0-2 .9-2 2v12c0 1.1.9 2 2 2h16c1.1 0 2-.9 2-2v-9c0-1.1-.9-2-2-2h-3zm-5 10c-2.76 0-5-2.24-5-5s2.24-5 5-5 5 2.24 5 5-2.24 5-5 5z"/></g></svg>

<?xml version="1.0" encoding="utf-8"?>
<!-- Generator: Adobe Illustrator 19.1.0, SVG Export Plug-In . SVG Version: 6.00 Build 0)  -->
<svg version="1.1" xmlns="http://www.w3.org/2000/svg" xmlns:xlink="http://www.w3.org/1999/xlink" x="0px" y="0px" width="24px"
	 height="24px" viewBox="0 0 24 24" enable-background="new 0 0 24 24" xml:space="preserve">
<g id="Bounding_Boxes">
	<g id="ui_x5F_spec_x5F_header_copy_3">
	</g>
	<path fill="none" d="M0,0h24v24H0V0z"/>
</g>
<g id="Rounded" fill="currentColor">
	<g id="ui_x5F_spec_x5F_header_copy_7">
	</g>
	<g>
		<circle cx="12" cy="14" r="3"/>
		<g>
			<path d="M16.6,3.37c2.1,0.27,3.77,1.93,4.03,4.03C20.67,7.74,20.95,8,21.29,8l0,0c0.39,0,0.71-0.34,0.66-0.73
				c-0.33-2.72-2.5-4.89-5.22-5.22C16.34,2,16,2.32,16,2.71v0C16,3.05,16.26,3.33,16.6,3.37z"/>
			<path d="M19.23,7.19C18.93,6,18,5.07,16.81,4.77C16.4,4.67,16,4.99,16,5.42v0c0,0.29,0.19,0.57,0.48,0.64
				c0.72,0.18,1.29,0.74,1.46,1.46C18.01,7.81,18.28,8,18.58,8l0,0C19.01,8,19.33,7.6,19.23,7.19z"/>
		</g>
		<path d="M17,9c0-1.1-0.9-2-2-2V5c0-0.55-0.45-1-1-1H9.88c-0.56,0-1.1,0.24-1.48,0.65L7.17,6H4C2.9,6,2,6.9,2,8v12c0,1.1,0.9,2,2,2
			h16c1.1,0,2-0.9,2-2v-9c0-1.1-0.9-2-2-2H17z M12,19c-2.76,0-5-2.24-5-5s2.24-5,5-5s5,2.24,5,5S14.76,19,12,19z"/>
	</g>
</g>
</svg>
